X: 260
T:Black Rogue, The
R:jig
D:Gerry O'Connor, Myriad, GarryKennedy Set
M:6/8
L:1/8
K:D
d|cAA BAB|cAA A2d|cAA BAG|AFD D2d|
cAA BAB|cAA AFD|GFG BAB|AFD D2:|
|:e|~f3 gfg|afd cBA|~f3 ~g3|afd dfg|
agf gfe|fed efd|cAA BAG|AFD D2:|
